svg/device/gradienter_fill.svg

<?xml version="1.0" encoding="UTF-8"?>
<svg width="24px" height="24px" viewBox="0 0 24 24" version="1.1" xmlns="http://www.w3.org/2000/svg" xmlns:xlink="http://www.w3.org/1999/xlink">
    <title>gradienter_fill</title>
    <g id="Icon" stroke="none" stroke-width="1" fill="none" fill-rule="evenodd">
        <g id="Device" transform="translate(-384.000000, -432.000000)">
            <g id="gradienter_fill" transform="translate(384.000000, 432.000000)">
                <path d="M24,0 L24,24 L0,24 L0,0 L24,0 Z M12.5935,23.2578 L12.5819,23.2595 L12.5109,23.295 L12.4919,23.2987 L12.4767,23.295 L12.4057,23.2595 C12.3958,23.2564 12.387,23.259 12.3821,23.2649 L12.378,23.2758 L12.3609,23.7031 L12.3659,23.7235 L12.3769,23.7357 L12.4805,23.8097 L12.4953,23.8136 L12.5071,23.8097 L12.6107,23.7357 L12.6233,23.7197 L12.6267,23.7031 L12.6096,23.2758 C12.6076,23.2657 12.601,23.2593 12.5935,23.2578 Z M12.8584,23.1453 L12.8445,23.1473 L12.6598,23.2397 L12.6499,23.2499 L12.6472,23.2611 L12.6651,23.6906 L12.6699,23.7034 L12.6784,23.7105 L12.8793,23.8032 C12.8914,23.8069 12.9022,23.803 12.9078,23.7952 L12.9118,23.7812 L12.8777,23.1665 C12.8753,23.1546 12.8674,23.147 12.8584,23.1453 Z M12.143,23.1473 C12.1332,23.1424 12.1222,23.1453 12.1156,23.1526 L12.1099,23.1665 L12.0758,23.7812 C12.0751,23.7927 12.0828,23.8019 12.0926,23.8046 L12.1083,23.8032 L12.3092,23.7105 L12.3186,23.7024 L12.3225,23.6906 L12.3404,23.2611 L12.3372,23.2485 L12.3278,23.2397 L12.143,23.1473 Z" id="MingCute" fill-rule="nonzero"></path>
                <path d="M12,2 C17.5228,2 22,6.47715 22,12 C22,17.5228 17.5228,22 12,22 C6.47715,22 2,17.5228 2,12 C2,6.47715 6.47715,2 12,2 Z M12,10.5 C11.1716,10.5 10.5,11.1716 10.5,12 C10.5,12.8284 11.1716,13.5 12,13.5 C12.8284,13.5 13.5,12.8284 13.5,12 C13.5,11.1716 12.8284,10.5 12,10.5 Z M8,11 L4,11 C3.44772,11 3,11.4477 3,12 C3,12.51285 3.38604429,12.9355092 3.88337975,12.9932725 L4,13 L8,13 C8.55228,13 9,12.5523 9,12 C9,11.48715 8.61395571,11.0644908 8.11662025,11.0067275 L8,11 Z M20,11 L16,11 C15.4477,11 15,11.4477 15,12 C15,12.51285 15.386027,12.9355092 15.8833761,12.9932725 L16,13 L20,13 C20.5523,13 21,12.5523 21,12 C21,11.48715 20.613973,11.0644908 20.1166239,11.0067275 L20,11 Z" id="形状" fill="#09244B"></path>
            </g>
        </g>
    </g>
</svg>

<svg xmlns="http://www.w3.org/2000/svg" width="24" height="24"><g fill="none" fill-rule="evenodd"><path d="M24 0v24H0V0h24ZM12.594 23.258l-.012.002-.071.035-.02.004-.014-.004-.071-.036c-.01-.003-.019 0-.024.006l-.004.01-.017.428.005.02.01.013.104.074.015.004.012-.004.104-.074.012-.016.004-.017-.017-.427c-.002-.01-.009-.017-.016-.018Zm.264-.113-.014.002-.184.093-.01.01-.003.011.018.43.005.012.008.008.201.092c.012.004.023 0 .029-.008l.004-.014-.034-.614c-.003-.012-.01-.02-.02-.022Zm-.715.002a.023.023 0 0 0-.027.006l-.006.014-.034.614c0 .012.007.02.017.024l.015-.002.201-.093.01-.008.003-.011.018-.43-.003-.012-.01-.01-.184-.092Z"/><path fill="#09244B" d="M12 2c5.523 0 10 4.477 10 10s-4.477 10-10 10S2 17.523 2 12 6.477 2 12 2Zm0 8.5a1.5 1.5 0 1 0 0 3 1.5 1.5 0 0 0 0-3ZM8 11H4a1 1 0 0 0-.117 1.993L4 13h4a1 1 0 0 0 .117-1.993L8 11Zm12 0h-4a1 1 0 0 0-.117 1.993L16 13h4a1 1 0 0 0 .117-1.993L20 11Z"/></g></svg>
